X:19045
T:Shove the Pig's Foot a Little Closer to the Fire
R:Reel
C:Trad.
O:USA
Z:Paul Hardy's Session Tunebook 2015 (see www.paulhardy.net). Creative Commons cc by-nc-sa licenced.
M:4/4
L:1/8
Q:1/4=190
K:G
|:"G"BcBA G2G2|"C" E2E2 "G"D2D2|DGGG B2 Bc|"D"B2 A2 A4|"G"BcBA G2G2|"C"GAGE "G"D2 D2|DGGG "D"B2 BB|"G"A2 G2 G4:|
|:"G"Bc d2 d2 d2|"C"edB2 "G"d4|"C"g4 g3g|"D"e2 d2 d4|"G"Bcd2 d2d2|"C"edB2 "G"d4|B4 "D"B3B|"G"A2 G2G4:|

